X:1
T:Klondike
M:6/8
L:1/8
K:C
 G3| E3/2 E/2 E EDC| F2 F B,3| F G3/2 F/2F/2 E3/2 D| G3- G2 E/2E/2|\
 EEE| EDC| F2 F B,2 G/2G/2| GAG F E3/2 D/2| C3- C3| E E3- E2| F F3- F2|\
 FGF F/2 E3/2 D| G3 ECD| E2 E EDC| F2 F B,2 B,| F2 F E2 D| G3/2 G/2 G E2 C|\
 EEE EDC| F2 F B,3| G3/2 G/2 G GFB,| D3 C3|||
